X:7295
T:The Rose of Drishane
O:england
M:4/4
L:1/8
R:hornpipe
K:D
fe ||: dAFA defg | afbf a2 fg | af (3gfe fagf | (3efe (3dcB A2 fe |
dAFA defg | afbf a2 fg | afba gecd | 1 eddc d2 fe :|| 2 eddc defg |
||: a3 b afdf | g3 a g2 fg | af (3gfe fagf | (3efe (3dcB A fe |
dAFA defg | afbf a2 fg | afba gecd | 1 eddc defg :|| 2 eddc d4 ||


